osm_icons/library.svg

<svg width="14" height="14" version="1.1" xmlns="http://www.w3.org/2000/svg"><path d="m12 1c-1.993-0.107-4.293 1.09-5.5 2.12v8.464c1.115-0.925 3.114-2.141 5.5-2.385z"/><path d="m6 12c-2.063-1.594-5-2-5-2v-7.6l-1-0.4v9l6 2h2l6-2v-9l-1 0.4v8l-5 1.6c-0.667-0.255-1.444-0.21-2 0z"/><path d="m2.592 0.877a1.844 1.844 0 0 0-0.592 0.123v8s3.188-0.125 4 3v-8.4c-0.62-1.306-2.019-2.78-3.408-2.723z"/></svg>

<svg xmlns="http://www.w3.org/2000/svg" width="14" height="14"><path d="M2.592.877A1.844 1.844 0 002 1v8s3.188-.125 4 3V3.6C5.38 2.294 3.981.82 2.592.877zM6 12c-2.063-1.594-5-2-5-2V2.4L0 2v9l6 2h2l6-2V2l-1 .4v8L8 12c-.667-.255-1.444-.21-2 0zm6-11C10.007.893 7.707 2.09 6.5 3.12v8.464c1.115-.925 3.114-2.141 5.5-2.385z"/></svg>
